X:157
T:An Punc\'an
T:Punc\'an, An
R:polka
C:Brendan Begley
D:Brendan Begley: We Won't Go Home 'Til Morning 
Z:id:hn-polka-157
M:2/4
L:1/8
K:D
B/c/ | dA BA | FA DF/A/ | dA BA | Be ef/e/ |
dA BA | FA DF/A/ | dA BA | Bc d :|
|: B | A>A AB | Ad fd | B>B BA | Bd gB | 
A>A AF | Ad fd | ed BA | Bc d :| 

